X: 33228
T: Puddlegum's Misery
R: hornpipe
M: 4/4
K: Aminor
(3G_GF|"E7"E2 .e2 ._e2 .d2|"Am"c>BA>B c2 B>A|"E7"^G>EG>B e>BG>E|"Am"A>EA>c e>cA>c|
"E7"E2 .e2 ._e2 .d2|"Am"c>BA>B c2 B>A|"E7"^G>EG>B e>dc>B|"Am"A2 A2 A2:|
|:(3cBA|"G7"G2 .g2 ._g2 .f2|"C" e>dc>d e2 d>c|"G"B>GB>d g>dB>d|"C"c>Bc>d e>dc>A|
"G"G2 .g2 ._g2 .f2|"C" e>dc>d e4|"E7"(3(EFE) ^D>E e>=dc>B|"Am"A2 A2 A2:|

